#src/img/common/search.svg

<svg width="25" height="24" viewBox="0 0 25 24" fill="none" xmlns="http://www.w3.org/2000/svg">
  <path d="M15.6269 14H14.8335L14.5523 13.73C15.5365 12.59 16.129 11.11 16.129 9.5C16.129 5.91 13.2065 3 9.60114 3C5.99573 3 3.07324 5.91 3.07324 9.5C3.07324 13.09 5.99573 16 9.60114 16C11.218 16 12.7044 15.41 13.8493 14.43L14.1205 14.71V15.5L19.1419 20.49L20.6383 19L15.6269 14V14ZM9.60114 14C7.10045 14 5.08183 11.99 5.08183 9.5C5.08183 7.01 7.10045 5 9.60114 5C12.1018 5 14.1205 7.01 14.1205 9.5C14.1205 11.99 12.1018 14 9.60114 14Z" fill="#202020"/>
</svg>

<svg width="25" height="24" fill="none" xmlns="http://www.w3.org/2000/svg"><path d="M15.627 14h-.793l-.282-.27A6.455 6.455 0 0016.13 9.5c0-3.59-2.923-6.5-6.528-6.5-3.605 0-6.528 2.91-6.528 6.5S5.996 16 9.601 16c1.617 0 3.103-.59 4.248-1.57l.271.28v.79l5.022 4.99L20.638 19l-5.011-5zM9.6 14c-2.5 0-4.52-2.01-4.52-4.5S7.102 5 9.602 5c2.5 0 4.52 2.01 4.52 4.5S12.1 14 9.6 14z" fill="#202020"/></svg>
